Origami/22x22/apps/kde.svg

<svg width="22" height="22" version="1.1" xmlns="http://www.w3.org/2000/svg">
 <rect transform="matrix(0,-1,-1,0,0,0)" x="-21" y="-21" width="20" height="20" rx="1" ry="1" fill="#2c9bff"/>
 <path d="m2 1c-0.554 0-1 0.446-1 1v0.5c0-0.554 0.446-1 1-1h18c0.554 0 1 0.446 1 1v-0.5c0-0.554-0.446-1-1-1h-18z" fill="#fff" opacity=".2"/>
 <path d="m2 21.5c-0.554 0-1-0.446-1-1v-0.5c0 0.554 0.446 1 1 1h18c0.554 0 1-0.446 1-1v0.5c0 0.554-0.446 1-1 1h-18z" opacity=".2"/>
 <path d="m12.015625 3.4746094-3.015625 0.5253906v10.386719l3-0.386719-0.015625-4.6816406 3.539063 5.1816406 3.476562-0.5-4-5.3632812 4.013672-4.5-3.519531-0.6484376-3.509766 4.5zm-6.3417969 2.6523437c-0.028972 0.00241-0.056303 0.015109-0.078125 0.037109l-1.0351562 1.046875c-0.04495 0.0453-0.052447 0.1159219-0.017578 0.1699219l1.25 1.9199218c-0.2358096 0.4184811-0.4139845 0.8773222-0.529297 1.3574222l-2.1582031 0.529297c-0.0599063 0.0147-0.1054688 0.068859-0.1054688 0.130859v1.363282c0 0.062 0.045563 0.116159 0.1054688 0.130859l2.1582031 0.529297c0.1153125 0.4801 0.2934874 0.938942 0.5292969 1.357422l-1.25 1.919922c-0.034868 0.054-0.027372 0.124623 0.017578 0.169921l1.0351562 1.046876c0.043643 0.044 0.1113563 0.04763 0.1640625 0.01562l1.9589845-1.201167c0.3843281 0.2239 0.9855094 0.404037 1.4238281 0.523437l0.4589844 2.216797c0.0127505 0.064004 0.0635781 0.109375 0.1269531 0.109375h1.5429684c0.06338 0 0.114202-0.04537 0.126954-0.109375l0.458984-2.216797c0.438319-0.1194 1.039502-0.299537 1.423828-0.523437l1.958984 1.201171c0.05271 0.032 0.120422 0.02838 0.164063-0.01562l1.035156-1.046876c0.04495-0.0453 0.05245-0.115921 0.01758-0.169921l-1.041015-1.59961-0.128907 0.01953-0.730468-1.070312c-0.746065 1.563963-2.323843 2.560614-4.056641 2.5625-2.4852814 0-4.5-2.014719-4.5-4.5 0.001438-1.708129 0.9698469-3.26818 2.499998-4.0273468v-0.9824218c-0.2852384 0.095102-0.5655115 0.2024411-0.78125 0.328125l-1.9589844-1.2011719c-0.026353-0.016-0.056965-0.023891-0.085937-0.021484z" style="opacity:.2"/>
 <path d="m12.015625 2.9746094l-3.015625 0.5253906v10.386719l3-0.386719-0.015625-4.6816406 3.539063 5.1816406 3.476562-0.5-4-5.3632812 4.013672-4.5-3.519531-0.6484376-3.509766 4.5 0.03125-4.5136718zm-6.3417969 2.6523437c-0.028972 0.00241-0.056303 0.0151094-0.078125 0.0371094l-1.0351562 1.046875c-0.04495 0.0453-0.0524472 0.1159219-0.0175781 0.1699219l1.25 1.9199218c-0.2358095 0.4184807-0.4139844 0.8773222-0.5292969 1.3574218l-2.1582031 0.529297c-0.0599063 0.0147-0.1054688 0.068859-0.1054688 0.130859v1.363282c0 0.062 0.0455629 0.116159 0.1054688 0.130859l2.1582031 0.529297c0.1153125 0.4801 0.2934874 0.938942 0.5292969 1.357422l-1.25 1.919922c-0.0348681 0.054-0.0273719 0.124623 0.0175781 0.169921l1.0351562 1.046876c0.043643 0.044 0.1113563 0.047635 0.1640625 0.015624l1.9589844-1.201171c0.3843281 0.2239 0.9855094 0.404037 1.4238281 0.523437l0.4589844 2.216797c0.0127505 0.064004 0.0635781 0.109375 0.1269531 0.109375h1.5429684c0.06338 0 0.114202-0.04537 0.126954-0.109375l0.458984-2.216797c0.438319-0.1194 1.039502-0.299537 1.423828-0.523437l1.958984 1.201171c0.05271 0.032001 0.120422 0.028375 0.164063-0.015624l1.035156-1.046876c0.04495-0.0453 0.052448-0.115921 0.017578-0.169921l-1.041015-1.59961-0.128907 0.019531-0.730468-1.070312c-0.746065 1.563963-2.323843 2.560614-4.056641 2.5625-2.4852814 0-4.5-2.014719-4.5-4.5 0.00144-1.708126 0.9698489-3.268177 2.5-4.0273438v-0.9824218c-0.2852384 0.095102-0.5655115 0.2024411-0.78125 0.328125l-1.9589844-1.2011719c-0.026353-0.016-0.056965-0.023891-0.0859375-0.0214844z" style="fill:#ffffff"/>
</svg>

<svg xmlns="http://www.w3.org/2000/svg" width="22" height="22" version="1.1">
 <rect fill="#2c9bff" width="20" height="20" x="-21" y="-21" rx="1" ry="1" transform="matrix(0,-1,-1,0,0,0)"/>
 <path fill="#fff" opacity=".2" d="m2 1c-0.554 0-1 0.446-1 1v0.5c0-0.554 0.446-1 1-1h18c0.554 0 1 0.446 1 1v-0.5c0-0.554-0.446-1-1-1h-18z"/>
 <path opacity=".2" d="m2 21.5c-0.554 0-1-0.446-1-1v-0.5c0 0.554 0.446 1 1 1h18c0.554 0 1-0.446 1-1v0.5c0 0.554-0.446 1-1 1h-18z"/>
 <path style="opacity:0.2" d="M 12.015625,3.4746094 9,4 V 14.386719 L 12,14 11.984375,9.3183594 15.523438,14.5 19,14 15,8.6367188 l 4.013672,-4.5 -3.519531,-0.6484376 -3.509766,4.5 z M 5.6738281,6.1269531 c -0.028972,0.00241 -0.056303,0.015109 -0.078125,0.037109 l -1.0351562,1.046875 c -0.04495,0.0453 -0.052447,0.1159219 -0.017578,0.1699219 l 1.25,1.9199218 C 5.5571593,9.7192619 5.3789844,10.178103 5.2636719,10.658203 L 3.1054688,11.1875 C 3.0455625,11.2022 3,11.256359 3,11.318359 V 12 12.681641 c 0,0.062 0.045563,0.116159 0.1054688,0.130859 l 2.1582031,0.529297 c 0.1153125,0.4801 0.2934874,0.938942 0.5292969,1.357422 l -1.25,1.919922 c -0.034868,0.054 -0.027372,0.124623 0.017578,0.169921 l 1.0351562,1.046876 c 0.043643,0.044 0.1113563,0.04763 0.1640625,0.01562 L 7.71875,16.650391 c 0.3843281,0.2239 0.9855094,0.404037 1.4238281,0.523437 l 0.4589844,2.216797 C 9.614313,19.454629 9.6651406,19.5 9.7285156,19.5 H 10.5 11.271484 c 0.06338,0 0.114202,-0.04537 0.126954,-0.109375 l 0.458984,-2.216797 c 0.438319,-0.1194 1.039502,-0.299537 1.423828,-0.523437 l 1.958984,1.201171 c 0.05271,0.032 0.120422,0.02838 0.164063,-0.01562 l 1.035156,-1.046876 c 0.04495,-0.0453 0.05245,-0.115921 0.01758,-0.169921 l -1.041015,-1.59961 -0.128907,0.01953 -0.730468,-1.070312 c -0.746065,1.563963 -2.323843,2.560614 -4.056641,2.5625 -2.4852814,0 -4.5,-2.014719 -4.5,-4.5 C 6.00144,10.323124 6.9698489,8.763073 8.5,8.0039062 V 7.0214844 C 8.2147616,7.1165864 7.9344885,7.2239255 7.71875,7.3496094 L 5.7597656,6.1484375 c -0.026353,-0.016 -0.056965,-0.023891 -0.085937,-0.021484 z"/>
 <path style="fill:#ffffff" d="M 12.015625 2.9746094 L 9 3.5 L 9 13.886719 L 12 13.5 L 11.984375 8.8183594 L 15.523438 14 L 19 13.5 L 15 8.1367188 L 19.013672 3.6367188 L 15.494141 2.9882812 L 11.984375 7.4882812 L 12.015625 2.9746094 z M 5.6738281 5.6269531 C 5.6448561 5.6293631 5.6175251 5.6420625 5.5957031 5.6640625 L 4.5605469 6.7109375 C 4.5155969 6.7562375 4.5080997 6.8268594 4.5429688 6.8808594 L 5.7929688 8.8007812 C 5.5571593 9.2192619 5.3789844 9.6781034 5.2636719 10.158203 L 3.1054688 10.6875 C 3.0455625 10.7022 3 10.756359 3 10.818359 L 3 11.5 L 3 12.181641 C 3 12.243641 3.0455629 12.2978 3.1054688 12.3125 L 5.2636719 12.841797 C 5.3789844 13.321897 5.5571593 13.780739 5.7929688 14.199219 L 4.5429688 16.119141 C 4.5081007 16.173141 4.5155969 16.243764 4.5605469 16.289062 L 5.5957031 17.335938 C 5.6393461 17.379938 5.7070594 17.383573 5.7597656 17.351562 L 7.71875 16.150391 C 8.1030781 16.374291 8.7042594 16.554428 9.1425781 16.673828 L 9.6015625 18.890625 C 9.614313 18.954629 9.6651406 19 9.7285156 19 L 10.5 19 L 11.271484 19 C 11.334864 19 11.385686 18.95463 11.398438 18.890625 L 11.857422 16.673828 C 12.295741 16.554428 12.896924 16.374291 13.28125 16.150391 L 15.240234 17.351562 C 15.292944 17.383563 15.360656 17.379937 15.404297 17.335938 L 16.439453 16.289062 C 16.484403 16.243762 16.491901 16.173141 16.457031 16.119141 L 15.416016 14.519531 L 15.287109 14.539062 L 14.556641 13.46875 C 13.810576 15.032713 12.232798 16.029364 10.5 16.03125 C 8.0147186 16.03125 6 14.016531 6 11.53125 C 6.00144 9.823124 6.9698489 8.263073 8.5 7.5039062 L 8.5 6.5214844 C 8.2147616 6.6165864 7.9344885 6.7239255 7.71875 6.8496094 L 5.7597656 5.6484375 C 5.7334126 5.6324375 5.7028006 5.6245465 5.6738281 5.6269531 z"/>
</svg>
